d1 $ palindrome $ jux (rev) $ stut 2 0.5 0.125 $ iter 4 $ randcat [sound "arpy*16", sound "pluck*16", sound "sprvibe*16", sound "ukulele*16", sound "em2*16", sound "dork2", sound "dorkbot", sound "space*16", sound "blip*16", sound "ade*16"] # n (irand 16) # coarse "<4 8 12 16>" # begin "<0 0.125 0.25 0.375 0.5>" # cutoff "<100 250 500 1000 2500 5000 10000>" # delayfeedback "[0.125 0.25 0.375 0.5 0.625 0.75 0.875 1]/8" # delaytime "0.125" # delay "[0.625 0.75 0.875 1]/8" # gain rand # legato 2
